icon-themes/sifr_svg/cmd/sc_selecttextmode.svg

<svg viewBox="0 0 16 16" xmlns="http://www.w3.org/2000/svg"><path d="m3 3v2h4c.552285 0 1 .4477153 1 1v1h-4c-1.656854 0-3 1.343146-3 3s1.343146 3 3 3h6v-7c0-1.6568542-1.343146-3-3-3zm8 2v2h1v6h-1v2h4v-2h-1v-6h1v-2zm-7 4h4v2h-4c-.552285 0-1-.447715-1-1s.447715-1 1-1z" fill="#555753"/></svg>

<?xml version="1.0" encoding="UTF-8" standalone="no"?>
<svg
   xmlns:dc="http://purl.org/dc/elements/1.1/"
   xmlns:cc="http://creativecommons.org/ns#"
   xmlns:rdf="http://www.w3.org/1999/02/22-rdf-syntax-ns#"
   xmlns:svg="http://www.w3.org/2000/svg"
   xmlns="http://www.w3.org/2000/svg"
   xmlns:sodipodi="http://sodipodi.sourceforge.net/DTD/sodipodi-0.dtd"
   xmlns:inkscape="http://www.inkscape.org/namespaces/inkscape"
   viewBox="0 0 16 16"
   version="1.1"
   id="svg6"
   sodipodi:docname="sc_selecttextmode.svg"
   inkscape:version="0.92.3 (2405546, 2018-03-11)">
  <metadata
     id="metadata12">
    <rdf:RDF>
      <cc:Work
         rdf:about="">
        <dc:format>image/svg+xml</dc:format>
        <dc:type
           rdf:resource="http://purl.org/dc/dcmitype/StillImage" />
      </cc:Work>
    </rdf:RDF>
  </metadata>
  <defs
     id="defs10" />
  <sodipodi:namedview
     pagecolor="#ffffff"
     bordercolor="#666666"
     borderopacity="1"
     objecttolerance="10"
     gridtolerance="10"
     guidetolerance="10"
     inkscape:pageopacity="0"
     inkscape:pageshadow="2"
     inkscape:window-width="2560"
     inkscape:window-height="1378"
     id="namedview8"
     showgrid="false"
     inkscape:zoom="14.75"
     inkscape:cx="-4.9830508"
     inkscape:cy="8"
     inkscape:window-x="0"
     inkscape:window-y="36"
     inkscape:window-maximized="1"
     inkscape:current-layer="svg6" />
  <path
     style="fill:#555753"
     d="M 3 3 L 3 5 L 7 5 C 7.552285 5 8 5.4477153 8 6 L 8 7 L 4 7 C 2.343146 7 1 8.343146 1 10 C 1 11.656854 2.343146 13 4 13 L 10 13 L 10 6 C 10 4.3431458 8.656854 3 7 3 L 3 3 z M 11 5 L 11 7 L 12 7 L 12 13 L 11 13 L 11 15 L 15 15 L 15 13 L 14 13 L 14 7 L 15 7 L 15 5 L 11 5 z M 4 9 L 8 9 L 8 11 L 4 11 C 3.447715 11 3 10.552285 3 10 C 3 9.447715 3.447715 9 4 9 z "
     id="path2" />
</svg>
